X: 6
T: Possum Up a Gum Stump [4]
T: Old Aunt Kate
M:2/4
L:1/8
R:Breakdown
S:Christeson – Old Time Fiddler’s Repertory, vol. 1, No. 93  (1973)
Z:AK/Fiddler’s Companion
F:http://www.ibiblio.org/fiddlers/OI_OLDGREY.htm
K:D
D/F/ \
|: AF ED | A/d/f/d/ e/d/B/d/ | AF EE/F/ | G/B/A/G/ F/D/D/F/ |
|  AF ED | A/d/f/d/ e/d/B/d/ | AF EE/F/ | G/B/A/G/ [F/A/][D/A/][DA]:|
|: A/B/d/e/ ff/d/ | e/d/e/f/ gg | A/B/d/e/ fd | e/f/e/d/ cA/B/c/ |
|  d/c/d/e/ ff    | e/d/e/f/ gf/g/ | a/b/a/f/ g/f/e/c/ | d/B/A/F/ D :|
